!!!SOCIAL_FUNCTION:	war songs
!!!PDT:	1922
!!!OTL: No_67_War_Song_(a).krn
!!!REG: Southwest
!!!LANG: Non-Tone
!!!LING_GROUP: Uto-Aztecan
**kern	**kern
*staff2	*staff1
=1-	=1-
*clefF4	*clefF4
*k[b-e-a-d-g-]	*k[b-e-a-d-g-]
*M2/4	*M2/4
4GG-/	2d-\
4GG-/	.
=2	=2
4GG-/	8.f\L
.	16e-\Jk
4GG-/	4e-\
=3||	=3||
*M3/4	*M3/4
2.r	2d-\
.	8A-\L
.	8F\J
=4||	=4||
*M2/4	*M2/4
2r	2d-\
=5	=5
2r	8.f\L
.	16e-\Jk
.	4e-\
=6||	=6||
*M3/4	*M3/4
2.r	2d-\
.	8B-\L
.	8A-\J
=7	=7
2.r	2.d-\
=8	=8
2.r	8B-\L
.	8A-\J
.	4A-\
.	8F\L
.	8D-\J
=9	=9
2.r	4A-\
.	2A-;\
=10||	=10||
*M2/4	*M2/4
2r	8.d-\L
.	16B-\Jk
.	4B-\
=11||	=11
*M3/4	*
--d	=
*	*M3/4
2.r	4A-\
.	4A-\
.	8F\L
.	8D-\J
=12||	=12||
*M2/4	*M2/4
2r	4A-\
.	4A-\
=13	=13
2r	4A-\
.	8F\L
.	8D-\J
=14	=14
2r	4E-\
.	4D-\
=15	=15
2r	4E-\
.	4E-;\
=16	=16
2r	8.A-\L
.	16F\Jk
.	4F\
=17||	=17||
*M3/4	*M3/4
2.r	4E-\
.	4E-\
.	4D-\
=18||	=18||
*M2/4	*M2/4
2r	4E-\
.	8.E-\L
.	16D-\Jk
=19	=19
2r	16E-\LK
.	8.E-\J
.	16D-\LK
.	8.D-\J
=20	=20
2r	4D-\
.	4D-\
=21	=21
2r	[2D-\
=22	=22
2r	2D-\]
==	==
*-	*-
